frontend/landing/src/assets/social/instagram.svg

<svg width="20" height="20" viewBox="0 0 20 20" fill="none" xmlns="http://www.w3.org/2000/svg">
  <path d="M10 1.79697C12.6719 1.79697 12.9844 1.81259 14.0391 1.85947C15.0156 1.90634 15.5469 2.07041 15.8984 2.20322C16.3672 2.38291 16.6953 2.60166 17.0469 2.95322C17.3984 3.30478 17.6172 3.63291 17.7969 4.10166C18.0173 4.69712 18.1336 5.3261 18.1406 5.96103C18.1875 7.01572 18.1953 7.32822 18.1953 10.0001C18.1953 12.672 18.1953 12.9845 18.1406 14.0392C18.1336 14.6741 18.0173 15.3031 17.7969 15.8985C17.6172 16.3673 17.3984 16.6954 17.0469 17.047C16.7248 17.3795 16.3324 17.6358 15.8984 17.797C15.303 18.0174 14.674 18.1337 14.0391 18.1407C12.9844 18.1876 12.6719 18.1954 10 18.1954C7.32812 18.1954 7.01562 18.1954 5.96094 18.1407C5.32601 18.1337 4.69703 18.0174 4.10156 17.797C3.63281 17.6173 3.30469 17.3985 2.95312 17.047C2.62055 16.7249 2.36428 16.3325 2.20312 15.8985C1.98267 15.3031 1.86638 14.6741 1.85938 14.0392C1.8125 12.9845 1.80469 12.672 1.80469 10.0001C1.80469 7.32822 1.80469 7.01572 1.85938 5.96103C1.86638 5.3261 1.98267 4.69712 2.20312 4.10166C2.38281 3.63291 2.60156 3.30478 2.95312 2.95322C3.30469 2.60166 3.63281 2.38291 4.10156 2.20322C4.69703 1.98276 5.32601 1.86648 5.96094 1.85947C7.01562 1.81259 7.32812 1.80478 10 1.80478M10 9.29264e-05C8.62469 -0.0190692 7.2491 0.00177298 5.875 0.0625929C5.04705 0.0811676 4.22821 0.239653 3.45312 0.531343C2.78548 0.780592 2.18025 1.17252 1.67969 1.67978C1.16961 2.17958 0.774975 2.78486 0.523438 3.45322C0.231748 4.2283 0.0732622 5.04715 0.0546875 5.87509C0.015625 6.95322 0 7.28134 0 10.0001C0 12.7188 0.0078125 13.0548 0.0625 14.1251C0.0810747 14.953 0.23956 15.7719 0.53125 16.547C0.780499 17.2146 1.17243 17.8198 1.67969 18.3204C2.17948 18.8305 2.78476 19.2251 3.45312 19.4767C4.22821 19.7683 5.04705 19.9268 5.875 19.9454C6.94531 19.9923 7.28125 20.0001 10 20.0001C12.7188 20.0001 13.0547 19.9923 14.125 19.9376C14.9529 19.919 15.7718 19.7605 16.5469 19.4688C17.2145 19.2196 17.8197 18.8277 18.3203 18.3204C18.8304 17.8206 19.225 17.2153 19.4766 16.547C19.7683 15.7719 19.9267 14.953 19.9453 14.1251C19.9922 13.0548 20 12.7188 20 10.0001C20.0192 8.62478 19.9983 7.2492 19.9375 5.87509C19.9189 5.04715 19.7604 4.2283 19.4688 3.45322C19.2195 2.78557 18.8276 2.18035 18.3203 1.67978C17.8205 1.1697 17.2152 0.775067 16.5469 0.52353C15.7718 0.231841 14.9529 0.0733551 14.125 0.0547804C12.7508 -0.00343482 11.3752 -0.0216717 10 9.29264e-05ZM10 4.86728C9.32595 4.86728 8.6585 5.00004 8.03576 5.25799C7.41302 5.51594 6.84718 5.89402 6.37055 6.37065C5.89393 6.84727 5.51585 7.41311 5.2579 8.03585C4.99995 8.65859 4.86719 9.32604 4.86719 10.0001C4.86719 10.6741 4.99995 11.3416 5.2579 11.9643C5.51585 12.5871 5.89393 13.1529 6.37055 13.6295C6.84718 14.1062 7.41302 14.4842 8.03576 14.7422C8.6585 15.0001 9.32595 15.1329 10 15.1329C11.3613 15.1329 12.6669 14.5921 13.6294 13.6295C14.592 12.667 15.1328 11.3614 15.1328 10.0001C15.1328 8.63879 14.592 7.33324 13.6294 6.37065C12.6669 5.40806 11.3613 4.86728 10 4.86728ZM10 13.336C9.56192 13.336 9.12813 13.2497 8.72339 13.0821C8.31866 12.9145 7.95091 12.6687 7.64114 12.359C7.33137 12.0492 7.08564 11.6814 6.918 11.2767C6.75035 10.872 6.66406 10.4382 6.66406 10.0001C6.66406 9.56201 6.75035 9.12822 6.918 8.72348C7.08564 8.31875 7.33137 7.951 7.64114 7.64123C7.95091 7.33146 8.31866 7.08574 8.72339 6.91809C9.12813 6.75044 9.56192 6.66416 10 6.66416C10.8847 6.66416 11.7333 7.01562 12.3589 7.64123C12.9845 8.26684 13.3359 9.11535 13.3359 10.0001C13.3359 10.8848 12.9845 11.7333 12.3589 12.359C11.7333 12.9846 10.8847 13.336 10 13.336ZM16.5391 4.66416C16.5524 4.82978 16.5314 4.99637 16.4772 5.15345C16.423 5.31052 16.3368 5.45467 16.2242 5.5768C16.1115 5.69893 15.9748 5.7964 15.8226 5.86307C15.6704 5.92973 15.506 5.96415 15.3398 5.96415C15.1737 5.96415 15.0093 5.92973 14.8571 5.86307C14.7049 5.7964 14.5682 5.69893 14.4555 5.5768C14.3429 5.45467 14.2567 5.31052 14.2025 5.15345C14.1483 4.99637 14.1272 4.82978 14.1406 4.66416C14.165 4.36282 14.3019 4.08169 14.5241 3.8767C14.7463 3.67172 15.0375 3.5579 15.3398 3.5579C15.6422 3.5579 15.9334 3.67172 16.1556 3.8767C16.3778 4.08169 16.5147 4.36282 16.5391 4.66416Z" fill="#ADB0B8"/>
  <defs>
    <rect width="20" height="20" fill="white"/>
  </defs>
</svg>

<svg xmlns="http://www.w3.org/2000/svg" fill="currentColor" viewBox="0 0 20 20"><path d="M10 1.797c2.6719 0 2.9844.0156 4.0391.0625.9765.0468 1.5078.211 1.8593.3437.4688.1797.7969.3985 1.1485.75.3515.3516.5703.6797.75 1.1485a5.5323 5.5323 0 0 1 .3437 1.8593c.0469 1.0547.0547 1.3672.0547 4.0391 0 2.6719 0 2.9844-.0547 4.0391a5.5318 5.5318 0 0 1-.3437 1.8593c-.1797.4688-.3985.7969-.75 1.1485a3.1036 3.1036 0 0 1-1.1485.75 5.5318 5.5318 0 0 1-1.8593.3437c-1.0547.0469-1.3672.0547-4.0391.0547-2.6719 0-2.9844 0-4.039-.0547a5.5324 5.5324 0 0 1-1.8594-.3437c-.4688-.1797-.797-.3985-1.1485-.75a3.1023 3.1023 0 0 1-.75-1.1485 5.5306 5.5306 0 0 1-.3437-1.8593c-.0469-1.0547-.0547-1.3672-.0547-4.0391 0-2.6719 0-2.9844.0547-4.039.007-.635.1233-1.264.3437-1.8594.1797-.4688.3985-.797.75-1.1485.3516-.3515.6797-.5703 1.1485-.75a5.5313 5.5313 0 0 1 1.8593-.3437c1.0547-.047 1.3672-.0547 4.0391-.0547M10 0a70.9375 70.9375 0 0 0-4.125.0625 7.3438 7.3438 0 0 0-2.4219.4687 4.8984 4.8984 0 0 0-1.7734 1.1485A4.8985 4.8985 0 0 0 .5234 3.4532a7.3437 7.3437 0 0 0-.4687 2.4219C.0157 6.9532 0 7.2813 0 10c0 2.7187.0078 3.0547.0625 4.125a7.3442 7.3442 0 0 0 .4688 2.4219 4.899 4.899 0 0 0 1.1484 1.7734 4.899 4.899 0 0 0 1.7734 1.1563 7.3467 7.3467 0 0 0 2.4219.4687c1.0703.0469 1.4063.0547 4.125.0547 2.7188 0 3.0547-.0078 4.125-.0625a7.3446 7.3446 0 0 0 2.4219-.4688 4.8977 4.8977 0 0 0 1.7734-1.1484 4.8995 4.8995 0 0 0 1.1563-1.7734 7.3445 7.3445 0 0 0 .4687-2.4219c.0469-1.0703.0547-1.4063.0547-4.125a70.922 70.922 0 0 0-.0625-4.125 7.3466 7.3466 0 0 0-.4687-2.4219 4.8988 4.8988 0 0 0-1.1485-1.7734A4.8989 4.8989 0 0 0 16.5469.5235 7.3442 7.3442 0 0 0 14.125.0548 70.9382 70.9382 0 0 0 10 0Zm0 4.8672a5.1328 5.1328 0 1 0 0 10.2655 5.1328 5.1328 0 0 0 0-10.2655Zm0 8.4687a3.3368 3.3368 0 0 1-2.3589-.977 3.3367 3.3367 0 0 1-.977-2.3589A3.336 3.336 0 1 1 10 13.336Zm6.5391-8.6718a1.2044 1.2044 0 0 1-.3149.9126 1.2035 1.2035 0 0 1-1.3671.2863 1.2035 1.2035 0 0 1-.7165-1.199 1.2035 1.2035 0 0 1 1.1992-1.1062 1.203 1.203 0 0 1 1.1993 1.1063Z"/></svg>
